X:93
T:First of May, The
O:england
R:hp 32
M:C|
K:Ador
AG|EAAB cBcA|d^cde f2 (3def|gfe^c dfec|d^cAF G2AG|
EAAB cBcA|d^cde f2 (3def|gfe^c dfec|A2AG A2:|
|:fg|a2af g2ge|(3fga fd e2ed|^cdef gfge|d^cAF G2AG|
EAAB cBcA|d^cde f2 (3def|gfe^c dfec|A2AG A2:|

